X:36
T:Walton Bridge. JJo8.036
B:J.Johnson Choice Collection Vol 8 1758
Z:vmp.Simon Wilson 2013 www.village-music-project.org.uk
M:C|
L:1/8
Q:1/2=80
K:A
|:e|c/c/c ec acec|B/B/B fB bBfB|c/c/c ec acec|B>cdcc2B:|
|:B|E/E/E GE BE dB|A/A/A cA ec ae|f/f/f af egaf|edcB"^tr"B2A:|
